X: 2
T: Many a Wild Night
T: Begley's
M: 2/4
L: 1/8
R: polka
K: Gmaj
B/c/ |:\ 
dg ge | dB BA/B/ | ce ed | Bd GB/c/ |
dg ge | dB BA/B/ | ce ed | G2 G2 :|
|:GD/G/ Bd | cA AG | FD/F/ Ac | BG GF |
GD/G/ Bd | cA AG | Fe dF |[1 G2 G2 :|[2 G2- G |]
Note: I've added the second ending, which wasn't given in Jack's transcription ~ |[2 G2- G |] B/c/ | ~ and converted the first lead-in from Bc to B/c/.   If the first of a set, and I've also played it that way, you can start the intro slowly, in other words ~ B2 c2 || ~ &amp; the tune follows...
